!!!COM: Bach, Johann Sebastian
!!!OTL: 224. Das walt' Gott Vater und Gott Sohn
!!!ONM: No. 224
!!!OCL: Erk
!!!SCA: BWV 290
!!!YOE: Riemenschneider, Albert
!!!OPR: 371 Harmonized Chorales and 69 Chorale Melodies with Figured Bass
!!!OPT: Bach Chorale Harmonizations
**harm	**root	**kern	**kern	**kern	**kern
!	!	!bass	!tenor	!alto	!sprno
*Iorgan	*Iorgan	*Iorgan	*Iorgan	*Iorgan	*Iorgan
*k[]	*k[]	*k[]	*k[]	*k[]	*k[]
*C:	*C:	*C:	*C:	*C:	*C:
*met(c)	*met(c)	*met(c)	*met(c)	*met(c)	*met(c)
*M4/4	*M4/4	*M4/4	*M4/4	*M4/4	*M4/4
*MM60	*MM60	*MM60	*MM60	*MM60	*MM60
I	4FF	4C	4E	4G	4c
=1	=1	=1	=1	=1	=1
I	4FF	4C	4G	4c	4e
Ib	4FF	8EE	4G	4c	4g
.	.	8FF	.	.	.
V	4CC	4GG	4D	4B	4g
Vb/vi	4AA	4GG#	4E	[4B	4e
=2	=2	=2	=2	=2	=2
vi	4DD	4AA	4E	8B]	4c
.	.	.	.	8A	.
Vb	4CC	4BB	4D	4G	4d
I;	4FF;	4C;	4C;	4G;	4e;
I	4FF	4C	4E	4G	4c
=3	=3	=3	=3	=3	=3
I	4FF	4.C	4E	4c	4g
Vb	4CC	.	4G	4d	4g
.	.	8BB	.	.	.
vi	4DD	4AA	4c	8e	4a
.	.	.	.	8f#	.
iii	4AA	8E	4B	4g	4b
.	.	8D	.	.	.
=4	=4	=4	=4	=4	=4
I	4FF	4C	4e	4.g	8cc
.	.	.	.	.	8b
V/V	4GG	4D	8A	.	4a
.	.	.	16d	8f#	.
.	.	.	16c	.	.
V;	4CC;	4GG;	4B;	4d;	4g;
Vb	4CC	4BB	4G	[4d	4g
=5	=5	=5	=5	=5	=5
!!linebreak: 2
I	4FF	4C	4G	8d]	4e
.	.	.	.	16c	.
.	.	.	.	16B	.
Ib	4FF	8EE	[4G	4c	4g
.	.	8CC	.	.	.
IV	4BB-	4FF	8G]	4c	4a
.	.	.	[8F	.	.
I	4FF	[4C	8F]	4c	4g
.	.	.	8E	.	.
=6	=6	=6	=6	=6	=6
V7b	4CC	8C]	4D	8d	4f
.	.	8BB	.	8G	.
I	4FF	4C	8.E	8G	4e
.	.	.	.	[8c	.
.	.	.	16F	.	.
V;	4CC;	4GG;	4G;	8c]	4d;
.	.	.	.	8B;	.
Vb	4CC	4BB	4G	4d	4g
=7	=7	=7	=7	=7	=7
I	4FF	4C	4G	4c	8e
.	.	.	.	.	8f
Ib	4FF	4EE	4G	4c	4g
IV	4BB-	4FF	4A	4c	4f
V7	4CC	4GG	8G	4B	8e
.	.	.	8F	.	8d
=8	=8	=8	=8	=8	=8
vi	4DD	4AA	8E	16A	4c
.	.	.	.	16B	.
.	.	.	16D	4c	.
.	.	.	16C	.	.
V	4CC	4GG	8.G	.	4d
.	.	.	.	8B	.
.	.	.	16F	.	.
I;	4FF;	4C;	4E;	4G;	4c;
==	==	==	==	==	==
*-	*-	*-	*-	*-	*-
!!!CDT: 1685/3//-1750/7/28
!!!OCY: Deutschland
!!!AGN: chorale
!!!AST: Baroque
!!!AIN: vox
!!!YOY: 1941
!!!PPP: New York; London
!!!PPR: G. Schirmer
!!!ENC: David Huron
!!!EED: David Huron
!!!YEN: United States of America
!!!YER: 1992
!!!YEC: Copyright 1992 David Huron
!!!YEM: Rights to all derivative electronic formats reserved.
!!!YER: March 20, 1996
!!!AMT: simple quadruple
!!!EEV: 1.1
!!chor2scor: -l 2 -s 0.6 -o %b.pmx
